logos/metamask.svg

<?xml version="1.0" encoding="UTF-8"?>
<svg width="512px" height="96px" viewBox="0 0 512 96" version="1.1" xmlns="http://www.w3.org/2000/svg" xmlns:xlink="http://www.w3.org/1999/xlink" preserveAspectRatio="xMidYMid">
    <title>MetaMask</title>
    <g>
				<path d="M444.190241,25.1249482 C447.278303,25.1249482 450.167912,26.1379652 452.708724,28.0471217 C455.363797,30.0342165 456.810104,33.1511455 457.12282,36.8917008 C457.152137,37.008518 457.093503,37.1035165 456.99639,37.1437147 L456.888283,37.1644246 L450.871522,37.1644246 C450.783571,37.1644246 450.69562,37.120449 450.657141,37.0492424 L450.636986,36.9695789 C449.933376,31.5535916 443.333281,30.073306 439.349168,32.7226655 C436.57382,34.5929432 436.026569,38.8786453 438.684649,41.0604354 C439.725028,41.9175959 440.923102,42.6016939 442.138994,43.2626723 L445.355934,45.0125802 L445.355934,45.0125802 L448.181119,46.4616891 C449.592096,47.1873236 450.988791,47.937314 452.31783,48.8139691 C456.888283,51.85302 458.409763,56.4505353 457.588886,61.5547094 C456.653747,66.7755504 452.044204,71.8018464 443.137834,71.8018464 C439.737055,71.8018464 436.456553,70.8667076 433.449675,68.6070393 C430.247351,66.2301029 429.074669,63.6198327 429.074669,58.9053498 C429.074669,58.8176242 429.140632,58.7298986 429.223086,58.6915186 L429.309205,58.6714148 L435.831122,58.6714148 C435.94839,58.6714148 436.065659,58.7883823 436.065659,58.9053498 C436.065659,59.3338298 436.143838,60.3080581 436.300195,60.8144162 C437.199251,63.6198327 439.776145,65.4119316 443.098745,65.6067772 C446.144711,65.8016229 449.190677,64.1261909 450.36336,61.7104657 C451.653311,59.0611061 450.715165,55.710242 447.747377,53.8790538 L447.365652,53.6482849 L447.365652,53.6482849 L445.957196,52.8419746 L445.957196,52.8419746 L444.257429,51.9127298 L444.257429,51.9127298 L436.051327,47.5856626 L436.051327,47.5856626 L435.553205,47.308339 L435.553205,47.308339 L435.401139,47.216716 C426.846573,41.9176962 428.292881,25.1249482 444.190241,25.1249482 Z M483.177411,26.0212682 C483.265363,26.0212682 483.353314,26.0870286 483.391792,26.1692164 L483.411948,26.2550529 L483.411948,43.7879738 C483.411948,43.9438503 483.562051,44.0498848 483.702148,44.0063163 L483.802842,43.9440307 L501.029241,26.0992065 C501.055301,26.073227 501.081361,26.0472477 501.119003,26.0328146 L501.185599,26.0212682 L509.505629,26.0212682 C509.661986,26.0212682 509.76831,26.1708904 509.724529,26.3105327 L509.661986,26.4108994 L489.347523,47.4506509 C489.295405,47.5025697 489.278031,47.5891009 489.295405,47.6640947 L489.347523,47.7621635 L511.926165,71.0227645 C512.05125,71.1163385 512.001216,71.3095966 511.896144,71.4031706 L511.808896,71.4515452 L503.488868,71.4515452 L503.410688,71.4271143 L503.410688,71.4271143 L503.332509,71.3733664 L483.802842,51.2687837 C483.709028,51.1441787 483.515143,51.1941169 483.441343,51.3188374 L483.411948,51.4248406 L483.411948,71.2176101 C483.411948,71.3053358 483.345984,71.3930614 483.26353,71.4314414 L483.177411,71.4515452 L476.652488,71.4515452 C476.564537,71.4515452 476.476586,71.385751 476.438107,71.3035082 L476.417951,71.2176101 L476.417951,26.2550529 C476.417951,26.167395 476.483914,26.0797201 476.566369,26.0413612 L476.652488,26.0212682 L483.177411,26.0212682 Z M151.377227,25.9823893 C151.455405,25.9823893 151.516211,25.9996956 151.559643,26.0458723 L151.611763,26.1382357 L156.963403,43.7491851 C157.025946,43.9363331 157.2384,43.9737627 157.360908,43.8614739 L157.432176,43.7491851 L162.783515,26.1382357 C162.809574,26.0862769 162.853007,26.0343314 162.913812,26.0054744 L163.018051,25.9823893 L172.901056,25.9823893 C172.988781,25.9823893 173.076675,26.0481328 173.11514,26.1303122 L173.135291,26.2161439 L173.135291,71.1788214 C173.135291,71.2663216 173.069328,71.3539908 172.987,71.3923567 L172.901056,71.4124558 L166.377334,71.4124558 C166.289609,71.4124558 166.201713,71.3466615 166.163249,71.2645457 L166.143099,71.1788214 L166.143099,37.0086683 C166.143099,36.7813985 165.871853,36.6894382 165.736195,36.822924 L165.674326,36.9307902 L160.283596,54.6587371 L159.893004,55.9053884 C159.866944,55.9573072 159.823511,56.0093596 159.762794,56.0382924 L159.658767,56.0614453 L154.658631,56.0614453 C154.580453,56.0614453 154.519647,56.0440722 154.476214,55.9978331 L154.424095,55.9053884 L154.033501,54.6587371 L148.643073,36.9307902 C148.577924,36.7360949 148.29582,36.7305823 148.203595,36.8919792 L148.174301,37.0086683 L148.174301,71.1788214 C148.174301,71.2663216 148.108338,71.3539908 148.025883,71.3923567 L147.939765,71.4124558 L141.416344,71.4124558 C141.328393,71.4124558 141.240442,71.3466615 141.201963,71.2645457 L141.181808,71.1788214 L141.181808,26.2161439 C141.181808,26.1284859 141.247771,26.040828 141.330225,26.0024776 L141.416344,25.9823893 L151.377227,25.9823893 Z M340.792752,25.9823893 C340.870931,25.9823893 340.931737,25.9996956 340.97517,26.0458723 L341.02729,26.1382357 L346.379531,43.7491851 C346.442074,43.9363331 346.65472,43.9737627 346.777304,43.8614739 L346.848603,43.7491851 L352.197838,26.1382357 C352.223898,26.0862769 352.267331,26.0343314 352.328136,26.0054744 L352.432375,25.9823893 L362.355069,25.9823893 C362.443021,25.9823893 362.530972,26.0481328 362.569451,26.1303122 L362.589606,26.2161439 L362.589606,71.1788214 C362.589606,71.2663216 362.523642,71.3539908 362.441188,71.3923567 L362.355069,71.4124558 L355.833153,71.4124558 C355.745202,71.4124558 355.657251,71.3466615 355.618771,71.2645457 L355.598616,71.1788214 L355.598616,37.0086683 C355.598616,36.7813985 355.327162,36.6894382 355.191435,36.822924 L355.129543,36.9307902 L349.738212,54.6587371 L349.347318,55.9053884 C349.321259,55.9573072 349.277826,56.0093596 349.217021,56.0382924 L349.112782,56.0614453 L344.112345,56.0614453 C344.034166,56.0614453 343.973361,56.0440722 343.929928,55.9978331 L343.877809,55.9053884 L343.486915,54.6587371 L338.098591,36.9307902 C338.033442,36.7360949 337.75113,36.7305823 337.658835,36.8919792 L337.629517,37.0086683 L337.629517,71.1788214 C337.629517,71.2663216 337.563554,71.3539908 337.4811,71.3923567 L337.394981,71.4124558 L330.870058,71.4124558 C330.782107,71.4124558 330.694156,71.3466615 330.655676,71.2645457 L330.635522,71.1788214 L330.635522,26.2161439 C330.635522,26.1284859 330.701484,26.040828 330.783939,26.0024776 L330.870058,25.9823893 L340.792752,25.9823893 Z M268.291831,25.9823893 C268.409098,25.9823893 268.482222,26.0481328 268.511455,26.1303122 L268.526066,26.2161439 L268.526066,31.826616 C268.526066,31.9143418 268.460272,32.0020674 268.377903,32.0404473 L268.291831,32.0605511 L256.37768,32.0605511 L256.37768,71.1788214 C256.37768,71.2663216 256.311717,71.3539908 256.229263,71.3923567 L256.143144,71.4124558 L249.619724,71.4124558 C249.531773,71.4124558 249.443991,71.3466615 249.405596,71.2645457 L249.385489,71.1788214 L249.385489,32.0605511 L237.471338,32.0605511 C237.383387,32.0605511 237.295436,31.9947569 237.256958,31.9125141 L237.236802,31.826616 L237.236802,26.2161439 C237.236802,26.1284859 237.302766,26.040828 237.385219,26.0024776 L237.471338,25.9823893 L268.291831,25.9823893 Z M300.44046,25.8260016 C300.518639,25.8260016 300.579445,25.8433212 300.622877,25.889498 L300.674996,25.981848 L312.940049,71.100342 C312.969366,71.2171591 312.910732,71.3339762 312.813619,71.3850838 L312.705512,71.4118544 L306.769937,71.4118544 C306.717817,71.4118544 306.648325,71.377242 306.596206,71.331092 L306.5354,71.2560982 L302.981271,58.1256666 C302.955212,58.0737478 302.911779,58.0218291 302.850973,57.9929853 L302.746735,57.9699103 L289.620513,57.9699103 C289.542335,57.9699103 289.481528,57.9872835 289.438185,58.0334334 L289.386277,58.1256666 L285.831547,71.2560982 C285.805487,71.308017 285.762055,71.3599356 285.701249,71.3887794 L285.59701,71.4118544 L279.659631,71.4118544 C279.542362,71.4118544 279.447082,71.3242416 279.423261,71.2147255 L279.425095,71.100342 L291.690748,25.981848 C291.716808,25.9299093 291.76024,25.8779571 291.821046,25.8490934 L291.925284,25.8260016 L300.44046,25.8260016 Z M401.691038,25.8260016 C401.769216,25.8260016 401.830023,25.8433212 401.873455,25.889498 L401.925574,25.981848 L414.190626,71.100342 C414.219944,71.2171591 414.161309,71.3339762 414.064197,71.3850838 L413.95609,71.4118544 L408.020515,71.4118544 C407.942336,71.4118544 407.88153,71.377242 407.838097,71.331092 L407.785978,71.2560982 L404.231849,58.1256666 C404.20579,58.0737478 404.162357,58.0218291 404.101551,57.9929853 L403.997312,57.9699103 L390.872293,57.9699103 C390.794114,57.9699103 390.733309,57.9872835 390.689876,58.0334334 L390.637757,58.1256666 L387.083628,71.2560982 C387.057568,71.308017 387.014135,71.3599356 386.95333,71.3887794 L386.849092,71.4118544 L380.910509,71.4118544 C380.793241,71.4118544 380.69796,71.3242416 380.67414,71.2147255 L380.675972,71.100342 L392.941025,25.981848 C392.967084,25.9299093 393.010517,25.8779571 393.071323,25.8490934 L393.175562,25.8260016 L401.691038,25.8260016 Z M219.62011,26.0212682 C219.708061,26.0212682 219.796012,26.0870286 219.834491,26.1692164 L219.854646,26.2550529 L219.854646,31.8657055 C219.854646,31.9532056 219.788683,32.0408749 219.706229,32.0792407 L219.62011,32.0993398 L199.854402,32.0993398 C199.766451,32.0993398 199.678499,32.1651341 199.640021,32.2473769 L199.619866,32.3332749 L199.619866,44.2555432 C199.619866,44.3432689 199.685829,44.4309945 199.768283,44.4693744 L199.854402,44.4894782 L217.237159,44.4894782 C217.32511,44.4894782 217.413062,44.5552725 217.451541,44.6373884 L217.471696,44.7231126 L217.471696,50.3336449 C217.471696,50.4213705 217.405733,50.5090961 217.323278,50.5474762 L217.237159,50.56758 L199.854402,50.56758 C199.766451,50.56758 199.678499,50.6333741 199.640021,50.7154901 L199.619866,50.8012142 L199.619866,64.7498171 C199.619866,64.8536547 199.654612,64.9230133 199.712522,64.9692078 L199.815312,65.022541 L220.440386,65.022541 C220.528337,65.022541 220.616288,65.0883352 220.654767,65.170578 L220.674922,65.256476 L220.674922,71.1785207 C220.674922,71.2662463 220.608958,71.3539721 220.526505,71.392352 L220.440386,71.4124558 L192.862209,71.4124558 C192.774258,71.4124558 192.686307,71.3466615 192.647829,71.2644188 L192.627673,71.1785207 L192.627673,26.2550529 C192.627673,26.167395 192.693637,26.0797201 192.776091,26.0413612 L192.862209,26.0212682 L219.62011,26.0212682 Z M296.417559,33.9690161 C296.355016,33.7821086 296.142369,33.7447271 296.019939,33.8568716 L295.948786,33.9690161 L291.182886,51.5412068 C291.153794,51.658024 291.212316,51.7748411 291.309358,51.8259487 L291.417423,51.8527193 L300.948622,51.8527193 C301.06589,51.8527193 301.161171,51.7651063 301.184991,51.6555903 L301.183159,51.5412068 L296.417559,33.9690161 Z M397.667836,33.9690161 C397.605293,33.7821086 397.392646,33.7447271 397.270062,33.8568716 L397.198763,33.9690161 L392.432863,51.5412068 C392.403545,51.658024 392.46218,51.7748411 392.559292,51.8259487 L392.667399,51.8527193 L402.1992,51.8527193 C402.316468,51.8527193 402.411748,51.7651063 402.435568,51.6555903 L402.433736,51.5412068 L397.667836,33.9690161 Z" fill="#161616"></path>
				<g transform="translate(-0.000000, 0.000000)">
						<polygon fill="#E17726" points="99.7600168 -3.54912987e-15 55.9380489 32.42514 64.0871246 13.3159513"></polygon>
						<polygon fill="#E27625" points="2.46965332 0.0381089193 38.0470235 13.318296 45.7849091 32.6780507"></polygon>
						<polygon fill="#E27625" points="82.1246958 68.9590679 101.49324 69.3276827 94.7242516 92.323169 71.0903381 85.815939"></polygon>
						<polygon fill="#E27625" points="20.0022525 68.9590462 30.995803 85.8159964 7.40145895 92.3235938 0.673588618 69.3276878"></polygon>
						<polygon fill="#E27625" points="44.7328387 27.7465668 45.5245903 53.3116751 21.8394195 52.2340804 28.5764735 42.0702383 28.6617431 41.9721883"></polygon>
						<polygon fill="#E27625" points="57.1490889 27.4614368 73.4654238 41.973275 73.5498045 42.0705344 80.2870231 52.2343804 56.6073685 53.3117312"></polygon>
						<polygon fill="#E27625" points="31.6892907 69.0332423 44.6221029 79.1098616 29.5990174 86.363137"></polygon>
						<polygon fill="#E27625" points="70.4402146 69.0316672 72.4871053 86.3631925 57.5061856 79.1092346"></polygon>
						<polygon fill="#D5BFB2" points="57.8367264 78.1599454 73.0389145 85.5210443 58.897836 92.2418271 59.0446594 87.7998286"></polygon>
						<polygon fill="#D5BFB2" points="44.2862736 78.1632722 43.1256783 87.7271771 43.2209218 92.2365941 29.0466421 85.5210979"></polygon>
						<polygon fill="#233447" points="39.8963305 56.6482738 43.8689251 64.9971658 30.3436108 61.0351278"></polygon>
						<polygon fill="#233447" points="62.2304569 56.6491057 71.8280828 61.0348552 58.2588623 64.9958958"></polygon>
						<polygon fill="#CC6228" points="32.7231773 68.9480473 30.5368499 86.9159165 18.8189962 69.3408188"></polygon>
						<polygon fill="#CC6228" points="69.4051111 68.948087 83.3097218 69.3408707 71.5477513 86.9165114"></polygon>
						<polygon fill="#CC6228" points="80.6296005 51.2181681 70.5104265 61.5310624 62.7086816 57.9657539 58.9732629 65.8183504 56.5245197 52.3148746"></polygon>
						<polygon fill="#CC6228" points="21.4927622 51.2179834 45.602062 52.3148744 43.1533189 65.8183505 39.4172007 57.9667529 31.6564716 61.5312214"></polygon>
						<polygon fill="#E27525" points="20.8106714 49.101877 32.2594206 60.7192152 32.6561902 72.1881463"></polygon>
						<polygon fill="#E27525" points="81.3281668 49.0808522 69.4615125 72.2083877 69.908294 60.7189561"></polygon>
						<polygon fill="#E27525" points="45.0424272 49.8092702 45.5031554 52.709522 46.6417603 59.9345633 45.9097882 82.1254527 42.4489697 64.299295 42.4478323 64.1149607"></polygon>
						<polygon fill="#E27525" points="57.0787805 49.7692673 59.6802552 64.1149732 59.6791156 64.299295 56.2096357 82.1700658 56.0723291 77.7001681 55.5309816 59.8031574"></polygon>
						<polygon fill="#F5841F" points="70.9259969 60.2574836 70.538512 70.222044 58.4612269 79.6318341 56.0197298 77.9068123 58.7564727 63.8102601"></polygon>
						<polygon fill="#F5841F" points="31.2432528 60.2576752 43.3707718 63.8105765 46.1074532 77.9068123 43.6659522 79.6318369 31.587944 70.2212395"></polygon>
						<polygon fill="#C0AC9D" points="26.735846 83.3205467 42.1874034 90.6417587 42.1219988 87.5154535 43.4148029 86.3806675 58.7075099 86.3806675 60.0471585 87.5116532 59.9484688 90.6357647 75.3020132 83.3390496 67.8309869 89.5127762 58.7968385 95.7177294 43.2909932 95.7177294 34.2627279 89.4874168"></polygon>
						<polygon fill="#161616" points="56.729914 77.1856369 58.9145851 78.7288498 60.1948463 88.9434907 58.3420909 87.3790532 43.7907844 87.3790532 41.9732969 88.974968 43.211519 78.7296324 45.3969476 77.1856369"></polygon>
						<polygon fill="#763E1A" points="96.8670349 0.897519126 102.127288 16.6783741 98.842195 32.6343329 101.181429 34.4390059 98.0160293 36.8540719 100.394924 38.6913172 97.244808 41.5603197 99.1788038 42.9608698 94.0462133 48.9551953 72.9944363 42.8257874 72.8120006 42.7280004 57.6416713 29.930772"></polygon>
						<polygon fill="#763E1A" points="5.26035537 0.897517575 44.485813 29.9307715 29.3154832 42.7280004 29.1330465 42.8257877 8.0811164 48.9551957 2.94861144 42.9608518 4.88107426 41.5613187 1.73237801 38.691319 4.10685604 36.8560699 0.894147158 34.4340898 3.32164892 32.6283389 -3.54912987e-15 16.6789633"></polygon>
						<polygon fill="#F5841F" points="71.9644872 41.4853663 94.2702181 47.9795504 101.517016 70.3141269 82.3985478 70.3140872 69.2253593 70.4803083 78.8054276 51.8069729"></polygon>
						<polygon fill="#F5841F" points="30.1626707 41.4853714 23.3204547 51.8069729 32.9018164 70.4803083 19.7350577 70.3141269 0.650476108 70.3141269 7.8565792 47.9796982"></polygon>
						<polygon fill="#F5841F" points="65.1795094 13.2094221 58.9404866 30.0599324 57.6164865 52.8234854 57.1098724 59.9582869 57.069684 78.1846281 45.0571983 78.1846281 45.0182574 59.992482 44.5099901 52.8171954 43.1853957 30.0599324 36.9473731 13.2094221"></polygon>
				</g>
		</g>
</svg>

<svg preserveAspectRatio="xMidYMid" viewBox="0 0 512 96" xmlns="http://www.w3.org/2000/svg">
  <path fill="#161616" d="M444.19 25.125c3.088 0 5.978 1.013 8.519 2.922 2.655 1.987 4.101 5.104 4.414 8.845a.207.207 0 0 1-.127.252l-.108.02h-6.016c-.088 0-.176-.044-.215-.115l-.02-.08c-.704-5.415-7.304-6.896-11.288-4.246-2.775 1.87-3.322 6.156-.664 8.337 1.04.858 2.238 1.542 3.454 2.203l3.217 1.75 2.825 1.449c1.411.725 2.808 1.475 4.137 2.352 4.57 3.039 6.092 7.637 5.27 12.74-.934 5.222-5.544 10.248-14.45 10.248-3.4 0-6.681-.935-9.688-3.195-3.203-2.377-4.375-4.987-4.375-9.702 0-.087.066-.175.148-.213l.086-.02h6.522c.117 0 .235.116.235.233 0 .429.078 1.403.234 1.91.9 2.805 3.476 4.597 6.799 4.792 3.046.195 6.092-1.48 7.264-3.897 1.29-2.649.352-6-2.616-7.83l-.381-.232-1.409-.806-1.7-.93-8.206-4.326-.498-.278-.152-.091c-8.554-5.3-7.108-22.092 8.79-22.092Zm38.987.896c.088 0 .176.066.215.148l.02.086v17.533c0 .156.15.262.29.218l.1-.062 17.227-17.845a.26.26 0 0 1 .09-.066l.067-.012h8.32c.156 0 .262.15.219.29l-.063.1-20.314 21.04a.232.232 0 0 0-.053.213l.053.098 22.578 23.26c.125.094.075.288-.03.381l-.087.049h-8.32l-.078-.025-.078-.054-19.53-20.104c-.094-.125-.288-.075-.362.05l-.03.106v19.793c0 .087-.065.175-.147.213l-.087.02h-6.525c-.087 0-.175-.065-.214-.147l-.02-.086V26.255c0-.088.066-.175.148-.214l.086-.02h6.525Zm-331.8-.039c.078 0 .14.018.183.064l.052.092 5.351 17.611a.244.244 0 0 0 .398.112l.071-.112 5.352-17.61a.289.289 0 0 1 .13-.134l.104-.023h9.883c.088 0 .176.066.214.148l.02.086V71.18c0 .087-.066.175-.148.213l-.086.02h-6.524c-.087 0-.175-.065-.214-.147l-.02-.086V37.01c0-.228-.271-.32-.407-.186l-.062.108-5.39 17.728-.391 1.246a.29.29 0 0 1-.13.133l-.104.023h-5c-.079 0-.14-.017-.183-.063l-.052-.093-.39-1.246-5.39-17.728c-.066-.195-.348-.2-.44-.039l-.03.117v34.17c0 .087-.066.175-.148.213l-.086.02h-6.524c-.088 0-.176-.065-.214-.147l-.02-.086V26.216c0-.088.066-.175.148-.214l.086-.02h9.961Zm189.416 0c.078 0 .139.018.182.064l.052.092 5.353 17.611a.244.244 0 0 0 .397.112l.072-.112 5.349-17.61a.289.289 0 0 1 .13-.134l.104-.023h9.923c.088 0 .176.066.214.148l.02.086V71.18c0 .087-.065.175-.148.213l-.086.02h-6.522c-.088 0-.176-.065-.214-.147l-.02-.086V37.01c0-.228-.272-.32-.408-.186l-.061.108-5.392 17.728-.39 1.246a.29.29 0 0 1-.131.133l-.104.023h-5c-.079 0-.14-.017-.183-.063l-.052-.093-.391-1.246-5.388-17.728c-.066-.195-.348-.2-.44-.039l-.03.117v34.17c0 .087-.065.175-.148.213l-.086.02h-6.525c-.088 0-.176-.065-.214-.147l-.02-.086V26.216c0-.088.065-.175.148-.214l.086-.02h9.923Zm-72.501 0a.22.22 0 0 1 .22.148l.014.086v5.61c0 .088-.066.176-.148.214l-.086.02h-11.914v39.12c0 .087-.066.175-.149.213l-.086.02h-6.523c-.088 0-.176-.065-.214-.147l-.02-.086V32.06H237.47c-.088 0-.176-.066-.214-.148l-.02-.086v-5.61c0-.089.066-.176.148-.215l.086-.02h30.82Zm32.148-.156c.079 0 .14.017.183.063l.052.093L312.94 71.1a.254.254 0 0 1-.126.285l-.108.027h-5.936a.299.299 0 0 1-.174-.08l-.06-.076-3.555-13.13a.289.289 0 0 0-.13-.133l-.104-.023H289.62c-.079 0-.14.017-.183.063l-.052.093-3.554 13.13a.289.289 0 0 1-.13.133l-.105.023h-5.937a.246.246 0 0 1-.237-.197l.002-.115 12.266-45.118a.289.289 0 0 1 .13-.133l.104-.023h8.515Zm101.251 0c.078 0 .139.017.182.063l.053.093L414.19 71.1a.254.254 0 0 1-.127.285l-.108.027h-5.935a.246.246 0 0 1-.183-.08l-.052-.076-3.554-13.13a.289.289 0 0 0-.13-.133l-.105-.023h-13.125c-.078 0-.139.017-.182.063l-.052.093-3.554 13.13a.289.289 0 0 1-.13.133l-.105.023h-5.938a.246.246 0 0 1-.237-.197l.002-.115 12.265-45.118a.289.289 0 0 1 .13-.133l.105-.023h8.515Zm-182.07.195c.087 0 .175.066.213.148l.02.086v5.61c0 .088-.065.176-.148.214l-.086.02h-19.766c-.088 0-.176.066-.214.148l-.02.086v11.923c0 .087.066.175.148.213l.086.02h17.383c.088 0 .176.066.215.148l.02.086v5.61c0 .088-.066.176-.149.214l-.086.02h-17.383c-.088 0-.176.066-.214.148l-.02.086V64.75c0 .104.035.173.093.22l.102.053h20.625c.088 0 .176.065.215.148l.02.085v5.923c0 .087-.066.175-.148.213l-.087.02h-27.578c-.088 0-.176-.065-.214-.148l-.02-.085V26.255c0-.088.066-.175.148-.214l.086-.02h26.758Zm76.797 7.948a.244.244 0 0 0-.398-.112l-.071.112-4.766 17.572c-.03.117.03.234.126.285l.108.027h9.532a.246.246 0 0 0 .236-.197l-.002-.115-4.765-17.572Zm101.25 0a.244.244 0 0 0-.398-.112l-.071.112-4.766 17.572c-.03.117.03.234.126.285l.108.027h9.532a.246.246 0 0 0 .237-.197l-.002-.115-4.766-17.572Z"/>
  <path fill="#E17726" d="M99.76 0 55.938 32.425l8.15-19.109z"/>
  <path fill="#E27625" d="m2.47.038 35.577 13.28 7.738 19.36z"/>
  <path fill="#E27625" d="m82.125 68.96 19.368.368-6.769 22.995-23.634-6.507z"/>
  <path fill="#E27625" d="m20.002 68.959 10.994 16.857L7.4 92.324.674 69.328z"/>
  <path fill="#E27625" d="m44.733 27.747.792 25.565-23.686-1.078 6.737-10.164.086-.098z"/>
  <path fill="#E27625" d="m57.15 27.461 16.315 14.512.085.098 6.737 10.163-23.68 1.078z"/>
  <path fill="#E27625" d="M31.69 69.033 44.621 79.11 29.6 86.363z"/>
  <path fill="#E27625" d="m70.44 69.032 2.047 17.331-14.98-7.254z"/>
  <path fill="#D5BFB2" d="m57.837 78.16 15.202 7.361-14.141 6.72.147-4.441z"/>
  <path fill="#D5BFB2" d="m44.286 78.163-1.16 9.564.095 4.51-14.174-6.716z"/>
  <path fill="#233447" d="m39.896 56.648 3.973 8.35-13.525-3.963z"/>
  <path fill="#233447" d="m62.23 56.65 9.598 4.385-13.57 3.96z"/>
  <path fill="#CC6228" d="m32.723 68.948-2.186 17.968L18.819 69.34z"/>
  <path fill="#CC6228" d="m69.405 68.948 13.905.393-11.762 17.576z"/>
  <path fill="#CC6228" d="M80.63 51.218 70.51 61.531l-7.801-3.565-3.736 7.852-2.448-13.503z"/>
  <path fill="#CC6228" d="m21.493 51.218 24.11 1.097-2.45 13.503-3.736-7.851-7.76 3.564z"/>
  <path fill="#E27525" d="m20.81 49.102 11.45 11.617.396 11.47z"/>
  <path fill="#E27525" d="M81.328 49.08 69.462 72.209l.446-11.489z"/>
  <path fill="#E27525" d="m45.042 49.81.461 2.9 1.139 7.225-.732 22.19L42.449 64.3l-.001-.184z"/>
  <path fill="#E27525" d="m57.079 49.77 2.601 14.345v.184L56.21 82.17l-.138-4.47-.541-17.897z"/>
  <path fill="#F5841F" d="m70.926 60.257-.387 9.965-12.078 9.41-2.441-1.725 2.736-14.097z"/>
  <path fill="#F5841F" d="m31.243 60.258 12.128 3.553 2.736 14.096-2.441 1.725-12.078-9.41z"/>
  <path fill="#C0AC9D" d="m26.736 83.32 15.451 7.322-.065-3.127 1.293-1.134h15.293l1.34 1.13-.1 3.125 15.354-7.297-7.471 6.174-9.034 6.205H43.29l-9.028-6.23z"/>
  <path fill="#161616" d="m56.73 77.186 2.185 1.543 1.28 10.214-1.853-1.564H43.791l-1.818 1.596 1.239-10.245 2.185-1.544z"/>
  <path fill="#763E1A" d="m96.867.898 5.26 15.78-3.285 15.956 2.34 1.805-3.166 2.415 2.379 1.837-3.15 2.87 1.934 1.4-5.133 5.994-21.052-6.13-.182-.097-15.17-12.797z"/>
  <path fill="#763E1A" d="M5.26.898 44.486 29.93l-15.17 12.797-.183.098-21.052 6.13L2.95 42.96l1.932-1.4-3.149-2.87 2.375-1.835-3.213-2.422 2.428-1.806L0 16.68z"/>
  <path fill="#F5841F" d="M71.964 41.485 94.27 47.98l7.247 22.334H82.399l-13.174.166 9.58-18.673z"/>
  <path fill="#F5841F" d="M30.163 41.485 23.32 51.807l9.582 18.673-13.167-.166H.65L7.857 47.98z"/>
  <path fill="#F5841F" d="m65.18 13.21-6.24 16.85-1.324 22.763-.506 7.135-.04 18.227H45.057l-.039-18.193-.508-7.175-1.325-22.757-6.238-16.85z"/>
</svg>
